symbolic/24x24/apps/diodon.svg

<svg xmlns="http://www.w3.org/2000/svg" width="24" height="24" version="1">
 <rect style="fill:#d3d3d3" width="13.953" height="14" x="2.05" y="-22" rx=".797" ry=".8" transform="matrix(0,1,-1,0,0,0)"/>
 <path style="opacity:0.2" d="m 11,13 0,-0.99999 5.9999,0 0,0.99999 z m 0,-2 0,-0.99999 8,0 L 19,11 Z m 0,-2 0,-0.99999 8,0 L 19,9 Z m 0,-2 0,-0.99999 8,0 L 19,7 Z"/>
 <path style="opacity:0.2" d="m 8.0001,15.203 0,0.499 c 0,0.442 0.3565,0.79799 0.79999,0.79799 l 12.4,0 c 0.444,0 0.8,-0.356 0.8,-0.798 l 0,-0.499 c 0,0.442 -0.3565,0.79699 -0.79999,0.79699 l -12.4,0 c -0.4435,0 -0.79999,-0.355 -0.79999,-0.79699 z"/>
 <rect style="fill:#e4e4e4" width="14" height="14" x="8" y="-16" rx=".8" ry=".8" transform="matrix(0,1,-1,0,0,0)"/>
 <path style="opacity:0.2" d="m 2.0002,21.2 0,0.5 c 0,0.444 0.3566,0.8 0.7998,0.8 l 12.4,0 c 0.4435,0 0.79999,-0.3565 0.79999,-0.79999 l 0,-0.5 C 15.99999,21.64351 15.64349,22 15.2,22 L 2.8,22 C 2.3566,22 2,21.644 2,21.2 Z"/>
 <path style="opacity:0.5" d="m 5,19 0,-0.99999 5.9999,0 0,0.99999 z m 0,-2 0,-0.99999 8,0 L 13,17 Z m 0,-2 0,-0.99999 8,0 L 13,15 Z m 0,-2 0,-0.99999 8,0 L 13,13 Z"/>
 <path style="opacity:0.2;fill:#ffffff" d="M 2.8008,8 C 2.3576,8 2,8.3576 2,8.8008 l 0,0.5 C 2,8.8576 2.3576,8.5 2.8008,8.5 l 12.398,0 c 0.443,0 0.801,0.3576 0.801,0.8008 l 0,-0.5 C 15.9998,8.3576 15.6418,8 15.1988,8 L 2.8008,8 Z"/>
</svg>

<svg xmlns="http://www.w3.org/2000/svg" width="24" height="24" version="1"><rect style="fill:#d3d3d3" width="13.953" height="14" x="2.05" y="-22" rx=".797" ry=".8" transform="rotate(90)"/><path style="opacity:.2" d="M11 13v-1h6v1zm0-2v-1h8v1zm0-2V8h8v1zm0-2V6h8v1zM8 15.203v.499c0 .442.357.798.8.798h12.4c.444 0 .8-.356.8-.798v-.499a.796.796 0 0 1-.8.797H8.8a.796.796 0 0 1-.8-.797z"/><rect style="fill:#e4e4e4" width="14" height="14" x="8" y="-16" rx=".8" ry=".8" transform="rotate(90)"/><path style="opacity:.2" d="M2 21.2v.5c0 .444.357.8.8.8h12.4c.444 0 .8-.356.8-.8v-.5c0 .444-.357.8-.8.8H2.8a.798.798 0 0 1-.8-.8z"/><path style="opacity:.5" d="M5 19v-1h6v1zm0-2v-1h8v1zm0-2v-1h8v1zm0-2v-1h8v1z"/><path style="opacity:.2;fill:#fff" d="M2.8 8a.8.8 0 0 0-.8.8v.5a.8.8 0 0 1 .8-.8H15.2a.8.8 0 0 1 .8.8v-.5a.8.8 0 0 0-.8-.8H2.8z"/></svg>
